;FLAVOR:RepRap
;TIME:7550
;Filament used: 13.2257m
;Layer height: 0.32
;Generated with Cura_SteamEngine 2.6.1
M80; enciendo
M85 S600 ;autoapagado de emergencia a los 10 minutos

M155 S5 ; report temp each 5 sec

G4 S10 ; espera 10 segundos a que prenda bien todo

M140 S100 ; set the bed temperature and continue on
M104 S230; set the hotend temperature and continue on

G21 ;metric values
G91; relative positioning
G0 Z10; 10mm up
G90 ;absolute positioning
M82 ;set extruder to absolute mode
M107 ;start with the fan off
G28 X0 Y0 ;move X/Y to min endstops
G28 Z0 ;move Z to min endstops

M109 S230; wait for the extruder temperature

M163 S0 P0 ; set mix
M163 S1 P0
M163 S2 P1
M164 S0
T0

G92 E0 ;zero the extruded length
G1 F200 E5 ;extrude 5mm of feed stock

G12; clean nozzle

G92 E0 ;zero the extruded length again

M190 S100 ; set the bed temperature and wait

G29;autobed leveling

G92 E0 ;zero the extruded length again
G1 F9000
M85 S60 ;autoapagado de emergencia al minuto
M117 Imprimiendo...
;LAYER_COUNT:47
;LAYER:0
M107
G0 F3600 X37.188 Y134.365 Z0.3
;TYPE:SKIRT
G1 F1800 X38.217 Y134.132 E0.05211
G1 X84.97 Y126.814 E2.38942
G1 X85.755 Y126.731 E2.42841
G1 X86.545 Y126.729 E2.46743
G1 X87.331 Y126.806 E2.50643
G1 X88.105 Y126.962 E2.54543
G1 X88.859 Y127.196 E2.58442
G1 X89.586 Y127.505 E2.62344
G1 X90.074 Y127.764 E2.65073
G1 X92.006 Y128.879 E2.7609
G1 X92.616 Y128.544 E2.79528
G1 X93.033 Y128.358 E2.81783
G1 X94.965 Y127.56 E2.92107
G1 X95.709 Y127.296 E2.96006
G1 X96.477 Y127.108 E2.99912
G1 X96.941 Y127.034 E3.02232
G1 X99.009 Y126.766 E3.12532
G1 X99.796 Y126.704 E3.16431
G1 X100.585 Y126.722 E3.20329
G1 X101.036 Y126.769 E3.22569
G1 X103.104 Y127.043 E3.32872
G1 X103.88 Y127.186 E3.36769
G1 X104.638 Y127.407 E3.40669
G1 X105.078 Y127.575 E3.42995
G1 X107.008 Y128.379 E3.53322
G1 X107.721 Y128.719 E3.57223
G1 X108 Y128.888 E3.58834
G1 X110.026 Y127.732 E3.70355
G1 X110.731 Y127.376 E3.74256
G1 X111.468 Y127.093 E3.78156
G1 X112.23 Y126.886 E3.82056
G1 X113.009 Y126.757 E3.85956
G1 X113.797 Y126.708 E3.89855
G1 X114.587 Y126.738 E3.9376
G1 X115.103 Y126.802 E3.96328
G1 X161.811 Y134.14 E6.29855
G1 X162.583 Y134.301 E6.3375
G1 X163.596 Y134.643 E6.3903
G1 X166.005 Y135.645 E6.51917
G1 X166.717 Y135.985 E6.55814
G1 X167.392 Y136.395 E6.59715
G1 X167.765 Y136.665 E6.61989
G1 X169.833 Y138.256 E6.74876
G1 X170.434 Y138.768 E6.78776
G1 X170.98 Y139.339 E6.82678
G1 X171.274 Y139.702 E6.84985
G1 X172.866 Y141.785 E6.97934
G1 X173.313 Y142.435 E7.0183
G1 X173.692 Y143.128 E7.05732
G1 X173.904 Y143.607 E7.08319
G1 X174.235 Y144.429 E7.12695
G1 X174.493 Y145.176 E7.16599
G1 X174.674 Y145.945 E7.20501
G1 X174.776 Y146.728 E7.24401
G1 X174.8 Y147.343 E7.27441
G1 X174.8 Y153.7 E7.58839
G1 X179.883 Y153.7 E7.83944
G1 X180.672 Y153.74 E7.87846
G1 X181.452 Y153.859 E7.91743
G1 X182.217 Y154.057 E7.95646
G1 X182.957 Y154.331 E7.99544
G1 X183.666 Y154.679 E8.03445
G1 X184.337 Y155.097 E8.07349
G1 X184.961 Y155.58 E8.11247
G1 X185.398 Y155.985 E8.1419
G1 X185.515 Y156.102 E8.15007
G1 X186.045 Y156.688 E8.18909
G1 X186.512 Y157.324 E8.22807
G1 X186.913 Y158.004 E8.26706
G1 X187.243 Y158.722 E8.30609
G1 X187.498 Y159.469 E8.34507
G1 X187.677 Y160.238 E8.38407
G1 X187.777 Y161.022 E8.42311
G1 X187.8 Y161.617 E8.45252
G1 X187.8 Y165.383 E8.63852
G1 X187.76 Y166.172 E8.67754
G1 X187.641 Y166.952 E8.71651
G1 X187.443 Y167.717 E8.75554
G1 X187.169 Y168.457 E8.79452
G1 X186.821 Y169.166 E8.83353
G1 X186.403 Y169.837 E8.87257
G1 X185.92 Y170.461 E8.91155
G1 X185.515 Y170.898 E8.94098
G1 X185.398 Y171.015 E8.94915
G1 X184.812 Y171.545 E8.98817
G1 X184.176 Y172.012 E9.02714
G1 X183.496 Y172.413 E9.06614
G1 X182.778 Y172.743 E9.10517
G1 X182.031 Y172.998 E9.14415
G1 X181.262 Y173.177 E9.18315
G1 X180.478 Y173.277 E9.22218
G1 X179.883 Y173.3 E9.25159
G1 X150.623 Y173.3 E10.69678
G1 X162.327 Y179.18 E11.34371
G1 X162.836 Y179.247 E11.36907
G1 X163.612 Y179.389 E11.40803
G1 X164.371 Y179.609 E11.44706
G1 X164.821 Y179.781 E11.47086
G1 X166.509 Y180.485 E11.56119
G1 X167.222 Y180.825 E11.60021
G1 X167.896 Y181.236 E11.6392
G1 X168.271 Y181.508 E11.66208
G1 X169.719 Y182.625 E11.7524
G1 X170.319 Y183.138 E11.79139
G1 X170.864 Y183.71 E11.83042
G1 X171.146 Y184.056 E11.85246
G1 X172.258 Y185.507 E11.94275
G1 X172.706 Y186.158 E11.98179
G1 X173.086 Y186.85 E12.02078
G1 X173.278 Y187.277 E12.0439
G1 X173.976 Y188.969 E12.13431
G1 X174.239 Y189.714 E12.17333
G1 X174.427 Y190.481 E12.21233
G1 X174.501 Y190.944 E12.23549
G1 X174.731 Y192.724 E12.32414
G1 X174.795 Y193.722 E12.37353
G1 X174.796 Y195.941 E12.48313
G1 X179.883 Y195.941 E12.73438
G1 X180.672 Y195.981 E12.7734
G1 X181.452 Y196.1 E12.81238
G1 X182.217 Y196.298 E12.8514
G1 X182.957 Y196.572 E12.89038
G1 X183.666 Y196.92 E12.92939
G1 X184.337 Y197.338 E12.96843
G1 X184.961 Y197.821 E13.00741
G1 X185.398 Y198.226 E13.03684
G1 X185.515 Y198.343 E13.04501
G1 X186.045 Y198.929 E13.08403
G1 X186.512 Y199.565 E13.12301
G1 X186.913 Y200.245 E13.162
G1 X187.243 Y200.963 E13.20103
G1 X187.498 Y201.71 E13.24001
G1 X187.677 Y202.479 E13.27901
G1 X187.777 Y203.263 E13.31805
G1 X187.8 Y203.858 E13.34746
G1 X187.8 Y207.622 E13.53336
G1 X187.76 Y208.411 E13.57238
G1 X187.641 Y209.191 E13.61136
G1 X187.443 Y209.956 E13.65038
G1 X187.169 Y210.696 E13.68936
G1 X186.821 Y211.405 E13.72837
G1 X186.403 Y212.076 E13.76741
G1 X185.92 Y212.7 E13.80639
G1 X185.515 Y213.137 E13.83582
G1 X185.398 Y213.254 E13.84399
G1 X184.812 Y213.784 E13.88301
G1 X184.176 Y214.251 E13.92199
G1 X183.496 Y214.652 E13.96098
G1 X182.778 Y214.982 E14.00001
G1 X182.031 Y215.237 E14.03899
G1 X181.262 Y215.416 E14.07799
G1 X180.478 Y215.516 E14.11703
G1 X179.883 Y215.539 E14.14644
G1 X20.117 Y215.539 E22.03749
G1 X19.328 Y215.499 E22.07651
G1 X18.548 Y215.38 E22.11548
G1 X17.783 Y215.182 E22.15451
G1 X17.043 Y214.908 E22.19348
G1 X16.334 Y214.56 E22.23249
G1 X15.663 Y214.142 E22.27154
G1 X15.039 Y213.659 E22.31051
G1 X14.602 Y213.254 E22.33994
G1 X14.485 Y213.137 E22.34811
G1 X13.955 Y212.551 E22.38714
G1 X13.488 Y211.915 E22.42611
G1 X13.087 Y211.235 E22.4651
G1 X12.757 Y210.517 E22.50413
G1 X12.502 Y209.77 E22.54311
G1 X12.323 Y209.001 E22.58211
G1 X12.223 Y208.217 E22.62115
G1 X12.2 Y207.622 E22.65056
G1 X12.2 Y203.858 E22.83647
G1 X12.24 Y203.069 E22.87549
G1 X12.359 Y202.289 E22.91446
G1 X12.557 Y201.524 E22.95349
G1 X12.831 Y200.784 E22.99246
G1 X13.179 Y200.075 E23.03147
G1 X13.597 Y199.404 E23.07052
G1 X14.08 Y198.78 E23.10949
G1 X14.485 Y198.343 E23.13892
G1 X14.602 Y198.226 E23.14709
G1 X15.188 Y197.696 E23.18612
G1 X15.824 Y197.229 E23.22509
G1 X16.504 Y196.828 E23.26408
G1 X17.222 Y196.498 E23.30311
G1 X17.969 Y196.243 E23.3421
G1 X18.738 Y196.064 E23.38109
G1 X19.522 Y195.964 E23.42013
G1 X20.117 Y195.941 E23.44954
G1 X25.199 Y195.941 E23.70055
G1 X25.199 Y193.727 E23.8099
G1 X25.267 Y192.699 E23.86078
G1 X25.506 Y190.904 E23.95022
G1 X25.65 Y190.127 E23.98925
G1 X25.871 Y189.369 E24.02825
G1 X26.034 Y188.942 E24.05083
G1 X26.739 Y187.244 E24.14163
G1 X27.079 Y186.531 E24.18065
G1 X27.488 Y185.856 E24.21963
G1 X27.758 Y185.482 E24.24241
G1 X28.873 Y184.031 E24.3328
G1 X29.385 Y183.43 E24.37179
G1 X29.956 Y182.884 E24.41081
G1 X30.313 Y182.593 E24.43356
G1 X31.764 Y181.481 E24.52385
G1 X32.415 Y181.033 E24.56288
G1 X33.107 Y180.653 E24.60188
G1 X33.534 Y180.461 E24.625
G1 X35.226 Y179.763 E24.7154
G1 X35.971 Y179.5 E24.75442
G1 X36.738 Y179.312 E24.79343
G1 X37.198 Y179.239 E24.81643
G1 X37.679 Y179.177 E24.84039
G1 X49.37 Y173.3 E25.48668
G1 X20.117 Y173.3 E26.93152
G1 X19.328 Y173.26 E26.97054
G1 X18.548 Y173.141 E27.00951
G1 X17.783 Y172.943 E27.04854
G1 X17.043 Y172.669 E27.08751
G1 X16.334 Y172.321 E27.12652
G1 X15.663 Y171.903 E27.16557
G1 X15.039 Y171.42 E27.20454
G1 X14.602 Y171.015 E27.23397
G1 X14.485 Y170.898 E27.24214
G1 X13.955 Y170.312 E27.28117
G1 X13.488 Y169.676 E27.32014
G1 X13.087 Y168.996 E27.35913
G1 X12.757 Y168.278 E27.39816
G1 X12.502 Y167.531 E27.43715
G1 X12.323 Y166.762 E27.47614
G1 X12.223 Y165.978 E27.51518
G1 X12.2 Y165.383 E27.54459
G1 X12.2 Y161.617 E27.7306
G1 X12.24 Y160.828 E27.76962
G1 X12.359 Y160.048 E27.80859
G1 X12.557 Y159.283 E27.84762
G1 X12.831 Y158.543 E27.88659
G1 X13.179 Y157.834 E27.9256
G1 X13.597 Y157.163 E27.96465
G1 X14.08 Y156.539 E28.00362
G1 X14.485 Y156.102 E28.03305
G1 X14.602 Y155.985 E28.04122
G1 X15.188 Y155.455 E28.08025
G1 X15.824 Y154.988 E28.11922
G1 X16.504 Y154.587 E28.15821
G1 X17.222 Y154.257 E28.19724
G1 X17.969 Y154.002 E28.23623
G1 X18.738 Y153.823 E28.27522
G1 X19.522 Y153.723 E28.31426
G1 X20.117 Y153.7 E28.34367
G1 X25.205 Y153.7 E28.59497
G1 X25.209 Y147.293 E28.91142
G1 X25.249 Y146.504 E28.95044
G1 X25.369 Y145.724 E28.98942
G1 X25.568 Y144.96 E29.02842
G1 X25.825 Y144.259 E29.06529
G1 X26.171 Y143.441 E29.10916
G1 X26.515 Y142.731 E29.14813
G1 X26.929 Y142.058 E29.18715
G1 X27.174 Y141.722 E29.20769
G1 X28.759 Y139.663 E29.33603
G1 X29.272 Y139.063 E29.37502
G1 X29.843 Y138.517 E29.41404
G1 X30.198 Y138.228 E29.43665
G1 X32.269 Y136.642 E29.56549
G1 X32.919 Y136.195 E29.60445
G1 X33.611 Y135.815 E29.64345
G1 X34.031 Y135.627 E29.66617
G1 X36.443 Y134.63 E29.79508
G1 X37.188 Y134.365 E29.83414
G0 F3600 X37.321 Y134.743
G1 F1800 X38.279 Y134.527 E29.88264
G1 X85.032 Y127.209 E32.21995
G1 X85.797 Y127.13 E32.25793
G1 X86.566 Y127.13 E32.29592
G1 X87.331 Y127.211 E32.33391
G1 X88.083 Y127.37 E32.37187
G1 X88.815 Y127.607 E32.40988
G1 X89.518 Y127.918 E32.44785
G1 X89.874 Y128.11 E32.46782
G1 X92.016 Y129.346 E32.58997
G1 X92.15 Y129.254 E32.598
G1 X92.827 Y128.887 E32.63603
G1 X93.186 Y128.727 E32.65544
G1 X95.118 Y127.929 E32.75869
G1 X95.843 Y127.673 E32.79666
G1 X96.591 Y127.494 E32.83465
G1 X96.992 Y127.43 E32.85471
G1 X99.06 Y127.162 E32.9577
G1 X99.827 Y127.103 E32.9957
G1 X100.596 Y127.124 E33.03369
G1 X100.983 Y127.165 E33.05292
G1 X103.051 Y127.439 E33.15595
G1 X103.807 Y127.58 E33.19393
G1 X104.545 Y127.798 E33.23194
G1 X104.925 Y127.944 E33.25205
G1 X106.855 Y128.748 E33.35531
G1 X107.548 Y129.08 E33.39327
G1 X107.98 Y129.361 E33.41872
G1 X110.224 Y128.08 E33.54634
G1 X110.911 Y127.734 E33.58433
G1 X111.631 Y127.461 E33.62237
G1 X112.374 Y127.264 E33.66033
G1 X113.134 Y127.146 E33.69832
G1 X113.902 Y127.107 E33.7363
G1 X115.04 Y127.197 E33.79268
G1 X161.748 Y134.535 E36.12795
G1 X162.501 Y134.693 E36.16595
G1 X163.442 Y135.012 E36.21503
G1 X165.851 Y136.014 E36.34389
G1 X166.545 Y136.346 E36.38189
G1 X167.2 Y136.748 E36.41985
G1 X167.521 Y136.982 E36.43947
G1 X169.589 Y138.573 E36.56834
G1 X170.174 Y139.073 E36.60635
G1 X170.703 Y139.631 E36.64433
G1 X170.956 Y139.944 E36.6642
G1 X172.548 Y142.027 E36.79369
G1 X172.983 Y142.662 E36.83171
G1 X173.35 Y143.338 E36.8697
G1 X173.533 Y143.757 E36.89229
G1 X173.864 Y144.579 E36.93605
G1 X174.114 Y145.306 E36.97402
G1 X174.287 Y146.056 E37.01204
G1 X174.381 Y146.819 E37.05001
G1 X174.4 Y147.343 E37.07591
G1 X174.4 Y154.1 E37.40965
G1 X179.883 Y154.1 E37.68046
G1 X180.651 Y154.14 E37.71844
G1 X181.411 Y154.259 E37.75644
G1 X182.154 Y154.457 E37.79442
G1 X182.873 Y154.731 E37.83242
G1 X183.559 Y155.078 E37.87039
G1 X184.206 Y155.494 E37.90838
G1 X184.806 Y155.975 E37.94636
G1 X185.116 Y156.267 E37.9674
G1 X185.233 Y156.384 E37.97557
G1 X185.747 Y156.956 E38.01355
G1 X186.2 Y157.578 E38.05156
G1 X186.586 Y158.243 E38.08954
G1 X186.901 Y158.945 E38.12754
G1 X187.141 Y159.676 E38.16554
G1 X187.304 Y160.427 E38.2035
G1 X187.388 Y161.192 E38.24151
G1 X187.4 Y161.617 E38.26251
G1 X187.4 Y165.383 E38.44852
G1 X187.36 Y166.151 E38.4865
G1 X187.241 Y166.911 E38.52449
G1 X187.043 Y167.654 E38.56247
G1 X186.769 Y168.373 E38.60048
G1 X186.422 Y169.059 E38.63845
G1 X186.006 Y169.706 E38.67644
G1 X185.525 Y170.306 E38.71442
G1 X185.233 Y170.616 E38.73545
G1 X185.116 Y170.733 E38.74363
G1 X184.544 Y171.247 E38.78161
G1 X183.922 Y171.7 E38.81961
G1 X183.257 Y172.086 E38.85759
G1 X182.555 Y172.401 E38.8956
G1 X181.824 Y172.641 E38.9336
G1 X181.073 Y172.804 E38.97155
G1 X180.308 Y172.888 E39.00956
G1 X179.883 Y172.9 E39.03056
G1 X148.934 Y172.9 E40.55918
G1 X162.204 Y179.567 E41.29267
G1 X162.784 Y179.643 E41.32156
G1 X163.54 Y179.783 E41.35953
G1 X164.278 Y180 E41.39753
G1 X164.667 Y180.15 E41.41812
G1 X166.355 Y180.854 E41.50845
G1 X167.049 Y181.187 E41.54647
G1 X167.704 Y181.59 E41.58446
G1 X168.027 Y181.825 E41.60419
G1 X169.475 Y182.942 E41.69451
G1 X170.059 Y183.443 E41.73252
G1 X170.829 Y184.3 E41.78942
G1 X171.941 Y185.751 E41.87971
G1 X172.376 Y186.385 E41.91769
G1 X172.743 Y187.06 E41.95564
G1 X172.908 Y187.43 E41.97565
G1 X173.606 Y189.122 E42.06605
G1 X173.862 Y189.847 E42.10402
G1 X174.041 Y190.595 E42.14201
G1 X174.104 Y190.996 E42.16206
G1 X174.334 Y192.776 E42.25071
G1 X174.395 Y193.722 E42.29753
G1 X174.396 Y196.341 E42.42688
G1 X179.883 Y196.341 E42.69789
G1 X180.651 Y196.381 E42.73588
G1 X181.411 Y196.5 E42.77387
G1 X182.154 Y196.698 E42.81185
G1 X182.873 Y196.972 E42.84986
G1 X183.559 Y197.319 E42.88783
G1 X184.206 Y197.735 E42.92582
G1 X184.806 Y198.216 E42.9638
G1 X185.116 Y198.508 E42.98483
G1 X185.233 Y198.625 E42.99301
G1 X185.747 Y199.197 E43.03099
G1 X186.2 Y199.819 E43.06899
G1 X186.586 Y200.484 E43.10697
G1 X186.901 Y201.186 E43.14497
G1 X187.141 Y201.917 E43.18298
G1 X187.304 Y202.668 E43.22093
G1 X187.388 Y203.433 E43.25894
G1 X187.4 Y203.858 E43.27994
G1 X187.4 Y207.622 E43.46585
G1 X187.36 Y208.39 E43.50384
G1 X187.241 Y209.15 E43.54183
G1 X187.043 Y209.893 E43.57981
G1 X186.769 Y210.612 E43.61781
G1 X186.422 Y211.298 E43.65578
G1 X186.006 Y211.945 E43.69377
G1 X185.525 Y212.545 E43.73176
G1 X185.233 Y212.855 E43.75279
G1 X185.116 Y212.972 E43.76096
G1 X184.544 Y213.486 E43.79895
G1 X183.922 Y213.939 E43.83695
G1 X183.257 Y214.325 E43.87493
G1 X182.555 Y214.64 E43.91293
G1 X181.824 Y214.88 E43.95093
G1 X181.073 Y215.043 E43.98889
G1 X180.308 Y215.127 E44.0269
G1 X179.883 Y215.139 E44.0479
G1 X20.117 Y215.139 E51.93895
G1 X19.349 Y215.099 E51.97694
G1 X18.589 Y214.98 E52.01493
G1 X17.846 Y214.782 E52.05291
G1 X17.127 Y214.508 E52.09091
G1 X16.441 Y214.161 E52.12888
G1 X15.794 Y213.745 E52.16687
G1 X15.194 Y213.264 E52.20486
G1 X14.884 Y212.972 E52.22589
G1 X14.767 Y212.855 E52.23406
G1 X14.253 Y212.283 E52.27205
G1 X13.8 Y211.661 E52.31005
G1 X13.414 Y210.996 E52.34803
G1 X13.099 Y210.294 E52.38603
G1 X12.859 Y209.563 E52.42403
G1 X12.696 Y208.812 E52.46199
G1 X12.612 Y208.047 E52.5
G1 X12.6 Y207.622 E52.521
G1 X12.6 Y203.858 E52.70691
G1 X12.64 Y203.09 E52.74489
G1 X12.759 Y202.33 E52.78289
G1 X12.957 Y201.587 E52.82087
G1 X13.231 Y200.868 E52.85887
G1 X13.578 Y200.182 E52.89684
G1 X13.994 Y199.535 E52.93483
G1 X14.475 Y198.935 E52.97281
G1 X14.767 Y198.625 E52.99385
G1 X14.884 Y198.508 E53.00202
G1 X15.456 Y197.994 E53.04
G1 X16.078 Y197.541 E53.07801
G1 X16.743 Y197.155 E53.11599
G1 X17.445 Y196.84 E53.15399
G1 X18.176 Y196.6 E53.19199
G1 X18.927 Y196.437 E53.22995
G1 X19.692 Y196.353 E53.26796
G1 X20.117 Y196.341 E53.28896
G1 X25.599 Y196.341 E53.55972
G1 X25.599 Y193.727 E53.68883
G1 X25.664 Y192.751 E53.73714
G1 X25.903 Y190.956 E53.82658
G1 X26.044 Y190.2 E53.86457
G1 X26.262 Y189.463 E53.90253
G1 X26.404 Y189.095 E53.92201
G1 X27.109 Y187.397 E54.01282
G1 X27.44 Y186.703 E54.05079
G1 X27.842 Y186.047 E54.08879
G1 X28.075 Y185.726 E54.10839
G1 X29.19 Y184.275 E54.19877
G1 X29.69 Y183.69 E54.23678
G1 X30.248 Y183.161 E54.27475
G1 X30.557 Y182.91 E54.29442
G1 X32.008 Y181.798 E54.38471
G1 X32.642 Y181.363 E54.42268
G1 X33.317 Y180.996 E54.46063
G1 X33.687 Y180.831 E54.48064
G1 X35.379 Y180.133 E54.57104
G1 X36.104 Y179.877 E54.60902
G1 X36.852 Y179.698 E54.64701
G1 X37.249 Y179.635 E54.66686
G1 X37.798 Y179.564 E54.6942
G1 X51.055 Y172.9 E55.42706
G1 X20.117 Y172.9 E56.95512
G1 X19.349 Y172.86 E56.99311
G1 X18.589 Y172.741 E57.0311
G1 X17.846 Y172.543 E57.06908
G1 X17.127 Y172.269 E57.10708
G1 X16.441 Y171.922 E57.14506
G1 X15.794 Y171.506 E57.18305
G1 X15.194 Y171.025 E57.22103
G1 X14.884 Y170.733 E57.24206
G1 X14.767 Y170.616 E57.25024
G1 X14.253 Y170.044 E57.28822
G1 X13.8 Y169.422 E57.32622
G1 X13.414 Y168.757 E57.3642
G1 X13.099 Y168.055 E57.4022
