;FLAVOR:RepRap
;TIME:5296
;Filament used: 7.86513m
;Layer height: 0.32
;Generated with Cura_SteamEngine 2.6.1
M80; enciendo
M85 S600 ;autoapagado de emergencia a los 10 minutos

M155 S5 ; report temp each 5 sec

G4 S10 ; espera 10 segundos a que prenda bien todo

M140 S100 ; set the bed temperature and continue on
M104 S230; set the hotend temperature and continue on

G21 ;metric values
G91; relative positioning
G0 Z10; 10mm up
G90 ;absolute positioning
M82 ;set extruder to absolute mode
M107 ;start with the fan off
G28 X0 Y0 ;move X/Y to min endstops
G28 Z0 ;move Z to min endstops

M109 S230; wait for the extruder temperature

M163 S0 P0 ; set mix
M163 S1 P0
M163 S2 P1
M164 S0
T0

G92 E0 ;zero the extruded length
G1 F200 E5 ;extrude 5mm of feed stock

G12; clean nozzle

G92 E0 ;zero the extruded length again

M190 S100 ; set the bed temperature and wait

G29;autobed leveling

G92 E0 ;zero the extruded length again
G1 F9000
M85 S60 ;autoapagado de emergencia al minuto
M117 Imprimiendo...
;LAYER_COUNT:153
;LAYER:0
M107
G0 F3600 X87.634 Y131.657 Z0.3
;TYPE:SKIRT
G1 F1800 X88.314 Y131.256 E0.03899
G1 X89.032 Y130.926 E0.07802
G1 X89.779 Y130.671 E0.11701
G1 X90.548 Y130.492 E0.156
G1 X91.332 Y130.392 E0.19504
G1 X91.927 Y130.369 E0.22445
G1 X123.628 Y130.369 E1.7902
G1 X124.417 Y130.409 E1.82922
G1 X125.197 Y130.528 E1.86819
G1 X125.962 Y130.726 E1.90722
G1 X126.702 Y131 E1.9462
G1 X127.411 Y131.348 E1.98521
G1 X128.082 Y131.766 E2.02425
G1 X128.706 Y132.249 E2.06323
G1 X129.143 Y132.654 E2.09266
G1 X129.26 Y132.771 E2.10083
G1 X129.79 Y133.357 E2.13985
G1 X130.257 Y133.993 E2.17883
G1 X130.658 Y134.673 E2.21782
G1 X130.988 Y135.391 E2.25685
G1 X131.243 Y136.138 E2.29583
G1 X131.422 Y136.907 E2.33483
G1 X131.522 Y137.691 E2.37387
G1 X131.545 Y138.286 E2.40327
G1 X131.545 Y160.536 E3.50223
G1 X131.505 Y161.325 E3.54125
G1 X131.386 Y162.105 E3.58022
G1 X131.188 Y162.87 E3.61925
G1 X130.914 Y163.61 E3.65823
G1 X130.566 Y164.319 E3.69724
G1 X130.148 Y164.99 E3.73628
G1 X129.665 Y165.614 E3.77526
G1 X129.26 Y166.051 E3.80468
G1 X129.143 Y166.168 E3.81286
G1 X128.557 Y166.698 E3.85188
G1 X127.921 Y167.165 E3.89085
G1 X127.241 Y167.566 E3.92984
G1 X126.523 Y167.896 E3.96887
G1 X125.776 Y168.151 E4.00786
G1 X125.007 Y168.33 E4.04686
G1 X124.223 Y168.43 E4.08589
G1 X123.628 Y168.453 E4.1153
G1 X119.209 Y168.453 E4.33356
G1 X118.42 Y168.413 E4.37258
G1 X117.64 Y168.294 E4.41155
G1 X116.875 Y168.096 E4.45058
G1 X116.135 Y167.822 E4.48956
G1 X115.426 Y167.474 E4.52857
G1 X114.755 Y167.056 E4.56761
G1 X114.131 Y166.573 E4.60659
G1 X113.766 Y166.24 E4.63099
G1 X113.65 Y166.127 E4.63899
G1 X113.113 Y165.548 E4.67799
G1 X112.638 Y164.918 E4.71696
G1 X112.228 Y164.243 E4.75597
G1 X111.889 Y163.53 E4.79496
G1 X111.623 Y162.786 E4.83399
G1 X111.435 Y162.019 E4.87299
G1 X111.324 Y161.237 E4.912
G1 X111.295 Y160.696 E4.93876
G1 X111.1 Y150.969 E5.41929
G1 X108.25 Y150.969 E5.56005
G1 X108.139 Y151.666 E5.59491
G1 X107.937 Y152.43 E5.63395
G1 X107.658 Y153.169 E5.67296
G1 X107.307 Y153.876 E5.71195
G1 X106.886 Y154.544 E5.75095
G1 X106.399 Y155.166 E5.78996
G1 X105.974 Y155.618 E5.82061
G1 X105.858 Y155.732 E5.82864
G1 X105.268 Y156.256 E5.86762
G1 X104.627 Y156.718 E5.90664
G1 X103.943 Y157.113 E5.94565
G1 X103.223 Y157.437 E5.98465
G1 X102.474 Y157.686 E6.02363
G1 X101.703 Y157.858 E6.06265
G1 X100.919 Y157.951 E6.10165
G1 X100.425 Y157.969 E6.12606
G1 X99.522 Y157.973 E6.17066
G1 X99.494 Y160.225 E6.2819
G1 X99.445 Y161.014 E6.32094
G1 X99.316 Y161.793 E6.35994
G1 X99.21 Y162.219 E6.38163
G1 X99.149 Y162.438 E6.39286
G1 X105.079 Y162.438 E6.68575
G1 X105.868 Y162.478 E6.72477
G1 X106.648 Y162.597 E6.76374
G1 X107.413 Y162.795 E6.80277
G1 X108.153 Y163.069 E6.84174
G1 X108.862 Y163.417 E6.88075
G1 X109.533 Y163.835 E6.9198
G1 X110.157 Y164.318 E6.95877
G1 X110.594 Y164.723 E6.9882
G1 X110.711 Y164.84 E6.99637
G1 X111.241 Y165.426 E7.0354
G1 X111.708 Y166.062 E7.07437
G1 X112.109 Y166.742 E7.11336
G1 X112.439 Y167.46 E7.15239
G1 X112.694 Y168.207 E7.19137
G1 X112.873 Y168.976 E7.23037
G1 X112.973 Y169.76 E7.26941
G1 X112.996 Y170.337 E7.29793
G1 X113.009 Y175.991 E7.57719
G1 X119.018 Y176.004 E7.87398
G1 X119.807 Y176.046 E7.91301
G1 X120.587 Y176.167 E7.95199
G1 X121.351 Y176.366 E7.99099
G1 X122.091 Y176.642 E8.03
G1 X122.8 Y176.991 E8.06903
G1 X123.469 Y177.41 E8.10801
G1 X124.093 Y177.894 E8.14702
G1 X124.517 Y178.289 E8.17564
G1 X124.634 Y178.406 E8.18381
G1 X125.164 Y178.992 E8.22284
G1 X125.631 Y179.628 E8.26181
G1 X126.032 Y180.308 E8.3008
G1 X126.362 Y181.026 E8.33983
G1 X126.617 Y181.773 E8.37882
G1 X126.796 Y182.542 E8.41781
G1 X126.896 Y183.326 E8.45685
G1 X126.919 Y183.919 E8.48616
G1 X126.92 Y188.59 E8.71687
G1 X126.898 Y189.017 E8.73799
G1 X126.925 Y189.226 E8.74839
G1 X126.948 Y189.819 E8.77771
G1 X126.949 Y194.643 E9.01597
G1 X126.909 Y195.432 E9.05499
G1 X126.79 Y196.213 E9.09401
G1 X126.592 Y196.977 E9.13299
G1 X126.318 Y197.718 E9.17201
G1 X125.971 Y198.427 E9.211
G1 X125.553 Y199.097 E9.25
G1 X125.07 Y199.722 E9.28902
G1 X124.664 Y200.16 E9.31851
G1 X124.547 Y200.277 E9.32669
G1 X123.961 Y200.807 E9.36571
G1 X123.325 Y201.274 E9.40468
G1 X122.645 Y201.675 E9.44367
G1 X121.927 Y202.005 E9.4827
G1 X121.18 Y202.26 E9.52169
G1 X120.411 Y202.439 E9.56069
G1 X119.627 Y202.539 E9.59972
G1 X119.016 Y202.562 E9.62992
G1 X108.975 Y202.542 E10.12586
G1 X108.187 Y202.5 E10.16484
G1 X107.63 Y202.422 E10.19262
G1 X106.789 Y202.273 E10.2348
G1 X106.02 Y202.096 E10.27378
G1 X105.356 Y201.875 E10.30834
G1 X104.35 Y201.489 E10.36156
G1 X103.628 Y201.169 E10.40057
G1 X102.962 Y200.791 E10.43839
G1 X102.222 Y200.321 E10.48169
G1 X101.578 Y199.865 E10.52066
G1 X100.952 Y199.316 E10.56179
G1 X100.671 Y199.042 E10.58117
G1 X97.21 Y199.038 E10.75212
G1 X96.421 Y198.997 E10.79114
G1 X95.641 Y198.877 E10.83012
G1 X94.877 Y198.678 E10.86911
G1 X94.136 Y198.403 E10.90815
G1 X93.427 Y198.055 E10.94716
G1 X92.758 Y197.637 E10.98612
G1 X92.134 Y197.153 E11.02513
G1 X91.775 Y196.825 E11.04914
G1 X91.659 Y196.712 E11.05714
G1 X91.122 Y196.133 E11.09615
G1 X90.647 Y195.503 E11.13512
G1 X90.237 Y194.828 E11.17412
G1 X89.898 Y194.115 E11.21312
G1 X89.632 Y193.371 E11.25214
G1 X89.444 Y192.604 E11.29115
G1 X89.333 Y191.822 E11.33016
G1 X89.304 Y191.281 E11.35692
G1 X89.139 Y183.025 E11.76477
G1 X86.329 Y183.028 E11.90356
G1 X86.205 Y189.198 E12.20837
G1 X86.15 Y189.986 E12.24738
G1 X86.015 Y190.764 E12.28638
G1 X85.801 Y191.524 E12.32538
G1 X85.513 Y192.259 E12.36437
G1 X85.151 Y192.961 E12.40338
G1 X84.72 Y193.623 E12.4424
G1 X84.224 Y194.238 E12.48142
G1 X83.874 Y194.605 E12.50647
G1 X83.758 Y194.719 E12.5145
G1 X83.168 Y195.243 E12.55348
G1 X82.527 Y195.705 E12.5925
G1 X81.843 Y196.1 E12.63152
G1 X81.123 Y196.424 E12.67051
G1 X80.374 Y196.673 E12.7095
G1 X79.603 Y196.845 E12.74851
G1 X78.819 Y196.938 E12.78751
G1 X78.291 Y196.956 E12.8136
G1 X73.703 Y196.956 E13.04021
G1 X72.914 Y196.916 E13.07923
G1 X72.134 Y196.797 E13.1182
G1 X71.369 Y196.599 E13.15723
G1 X70.629 Y196.325 E13.1962
G1 X69.92 Y195.977 E13.23521
G1 X69.249 Y195.559 E13.27426
G1 X68.625 Y195.076 E13.31323
G1 X68.188 Y194.671 E13.34266
G1 X68.071 Y194.554 E13.35083
G1 X67.541 Y193.968 E13.38986
G1 X67.074 Y193.332 E13.42883
G1 X66.673 Y192.652 E13.46782
G1 X66.343 Y191.934 E13.50685
G1 X66.088 Y191.187 E13.54584
G1 X65.909 Y190.418 E13.58484
G1 X65.809 Y189.634 E13.62387
G1 X65.786 Y189.039 E13.65328
G1 X65.786 Y170.355 E14.57611
G1 X65.826 Y169.566 E14.61513
G1 X65.945 Y168.786 E14.6541
G1 X66.143 Y168.021 E14.69313
G1 X66.417 Y167.281 E14.7321
G1 X66.765 Y166.572 E14.77111
G1 X67.183 Y165.901 E14.81016
G1 X67.666 Y165.277 E14.84913
G1 X68.071 Y164.84 E14.87856
G1 X68.188 Y164.723 E14.88673
G1 X68.774 Y164.193 E14.92576
G1 X69.41 Y163.726 E14.96473
G1 X69.77 Y163.514 E14.98537
G1 X69.744 Y163.309 E14.99557
G1 X69.721 Y162.715 E15.02493
G1 X69.72 Y157.429 E15.28601
G1 X69.76 Y156.641 E15.32498
G1 X69.767 Y156.596 E15.32723
G1 X69.75 Y156.16 E15.34879
G1 X69.749 Y151.959 E15.55628
G1 X69.789 Y151.17 E15.5953
G1 X69.908 Y150.39 E15.63427
G1 X70.106 Y149.625 E15.6733
G1 X70.38 Y148.884 E15.71232
G1 X70.727 Y148.175 E15.75131
G1 X71.144 Y147.505 E15.79028
G1 X71.627 Y146.88 E15.8293
G1 X72.034 Y146.442 E15.85883
G1 X72.151 Y146.325 E15.867
G1 X72.737 Y145.795 E15.90603
G1 X73.373 Y145.328 E15.945
G1 X74.053 Y144.927 E15.98399
G1 X74.771 Y144.597 E16.02302
G1 X75.518 Y144.342 E16.062
G1 X76.287 Y144.163 E16.101
G1 X77.071 Y144.063 E16.14004
G1 X77.666 Y144.04 E16.16945
G1 X79.404 Y144.04 E16.25529
G1 X84.01 Y140.85 E16.53202
G1 X84.01 Y138.286 E16.65866
G1 X84.05 Y137.497 E16.69768
G1 X84.169 Y136.717 E16.73665
G1 X84.367 Y135.952 E16.77568
G1 X84.641 Y135.212 E16.81465
G1 X84.989 Y134.503 E16.85366
G1 X85.407 Y133.832 E16.89271
G1 X85.89 Y133.208 E16.93168
G1 X86.295 Y132.771 E16.96111
G1 X86.412 Y132.654 E16.96928
G1 X86.998 Y132.124 E17.00831
G1 X87.634 Y131.657 E17.04728
G0 F3600 X87.888 Y131.969
G1 F1800 X88.553 Y131.583 E17.08526
G1 X89.255 Y131.268 E17.12326
G1 X89.986 Y131.028 E17.16126
G1 X90.737 Y130.865 E17.19922
G1 X91.502 Y130.781 E17.23723
G1 X91.927 Y130.769 E17.25823
G1 X123.628 Y130.769 E18.82398
G1 X124.396 Y130.809 E18.86197
G1 X125.156 Y130.928 E18.89996
G1 X125.899 Y131.126 E18.93794
G1 X126.618 Y131.4 E18.97595
G1 X127.304 Y131.747 E19.01392
G1 X127.951 Y132.163 E19.05191
G1 X128.551 Y132.644 E19.08989
G1 X128.861 Y132.936 E19.11092
G1 X128.978 Y133.053 E19.1191
G1 X129.492 Y133.625 E19.15708
G1 X129.945 Y134.247 E19.19508
G1 X130.331 Y134.912 E19.23306
G1 X130.646 Y135.614 E19.27106
G1 X130.886 Y136.345 E19.30907
G1 X131.049 Y137.096 E19.34702
G1 X131.133 Y137.861 E19.38503
G1 X131.145 Y138.286 E19.40603
G1 X131.145 Y160.536 E20.50499
G1 X131.105 Y161.304 E20.54297
G1 X130.986 Y162.064 E20.58097
G1 X130.788 Y162.807 E20.61895
G1 X130.514 Y163.526 E20.65695
G1 X130.167 Y164.212 E20.69492
G1 X129.751 Y164.859 E20.73291
G1 X129.27 Y165.459 E20.77089
G1 X128.978 Y165.769 E20.79193
G1 X128.861 Y165.886 E20.8001
G1 X128.289 Y166.4 E20.83808
G1 X127.667 Y166.853 E20.87609
G1 X127.002 Y167.239 E20.91407
G1 X126.3 Y167.554 E20.95207
G1 X125.569 Y167.794 E20.99007
G1 X124.818 Y167.957 E21.02803
G1 X124.053 Y168.041 E21.06604
G1 X123.628 Y168.053 E21.08704
G1 X119.209 Y168.053 E21.3053
G1 X118.441 Y168.013 E21.34328
G1 X117.681 Y167.894 E21.38128
G1 X116.938 Y167.696 E21.41926
G1 X116.219 Y167.422 E21.45726
G1 X115.533 Y167.075 E21.49523
G1 X114.886 Y166.659 E21.53322
G1 X114.045 Y165.954 E21.58742
G1 X113.929 Y165.841 E21.59542
G1 X113.407 Y165.276 E21.63342
G1 X112.946 Y164.66 E21.67142
G1 X112.552 Y164 E21.70938
G1 X112.228 Y163.302 E21.74739
G1 X111.978 Y162.575 E21.78536
G1 X111.805 Y161.825 E21.82338
G1 X111.694 Y160.688 E21.8798
G1 X111.491 Y150.569 E22.37969
G1 X107.88 Y150.569 E22.55805
G1 X107.863 Y150.864 E22.57264
G1 X107.739 Y151.623 E22.61063
G1 X107.537 Y152.365 E22.64861
G1 X107.259 Y153.082 E22.68659
G1 X106.909 Y153.767 E22.72458
G1 X106.489 Y154.411 E22.76256
G1 X106.004 Y155.009 E22.80059
G1 X105.694 Y155.333 E22.82274
G1 X105.578 Y155.447 E22.83077
G1 X105.002 Y155.957 E22.86877
G1 X104.376 Y156.404 E22.90676
G1 X103.708 Y156.784 E22.94472
G1 X103.003 Y157.093 E22.98274
G1 X102.27 Y157.326 E23.02072
G1 X101.517 Y157.483 E23.05872
G1 X100.423 Y157.569 E23.11292
G1 X99.127 Y157.575 E23.17693
G1 X99.094 Y160.22 E23.30758
G1 X99.045 Y160.988 E23.34559
G1 X98.824 Y162.112 E23.40217
G1 X98.622 Y162.838 E23.43939
G1 X105.079 Y162.838 E23.75831
G1 X105.847 Y162.878 E23.79629
G1 X106.607 Y162.997 E23.83429
G1 X107.35 Y163.195 E23.87226
G1 X108.069 Y163.469 E23.91027
G1 X108.755 Y163.816 E23.94824
G1 X109.402 Y164.232 E23.98623
G1 X110.002 Y164.713 E24.02421
G1 X110.312 Y165.005 E24.04525
G1 X110.429 Y165.122 E24.05342
G1 X110.943 Y165.694 E24.0914
G1 X111.396 Y166.316 E24.12941
G1 X111.782 Y166.981 E24.16738
G1 X112.097 Y167.683 E24.20539
G1 X112.337 Y168.414 E24.24339
G1 X112.5 Y169.165 E24.28135
G1 X112.584 Y169.93 E24.31936
G1 X112.596 Y170.338 E24.33952
G1 X112.61 Y176.391 E24.63848
G1 X119.018 Y176.404 E24.95498
G1 X119.786 Y176.446 E24.99297
G1 X120.545 Y176.567 E25.03093
G1 X121.288 Y176.766 E25.06893
G1 X122.006 Y177.041 E25.1069
G1 X122.692 Y177.39 E25.14492
G1 X123.338 Y177.807 E25.18289
G1 X123.937 Y178.29 E25.2209
G1 X124.235 Y178.571 E25.24113
G1 X124.352 Y178.688 E25.2493
G1 X124.866 Y179.26 E25.28728
G1 X125.319 Y179.882 E25.32529
G1 X125.705 Y180.547 E25.36327
G1 X126.02 Y181.249 E25.40127
G1 X126.26 Y181.98 E25.43927
G1 X126.423 Y182.731 E25.47723
G1 X126.507 Y183.496 E25.51524
G1 X126.519 Y183.919 E25.53614
G1 X126.52 Y188.59 E25.76685
G1 X126.497 Y189.038 E25.789
G1 X126.536 Y189.396 E25.80679
G1 X126.548 Y189.819 E25.82769
G1 X126.549 Y194.643 E26.06595
G1 X126.509 Y195.412 E26.10399
G1 X126.39 Y196.171 E26.14193
G1 X126.192 Y196.915 E26.17996
G1 X125.919 Y197.634 E26.21794
G1 X125.572 Y198.32 E26.25592
G1 X125.156 Y198.967 E26.29391
G1 X124.675 Y199.567 E26.33189
G1 X124.382 Y199.878 E26.35299
G1 X124.265 Y199.995 E26.36117
G1 X123.693 Y200.509 E26.39915
G1 X123.071 Y200.962 E26.43715
G1 X122.406 Y201.348 E26.47513
G1 X121.704 Y201.663 E26.51313
G1 X120.973 Y201.903 E26.55114
G1 X120.222 Y202.066 E26.58909
G1 X119.457 Y202.15 E26.6271
G1 X119.017 Y202.162 E26.64884
G1 X108.976 Y202.142 E27.14478
G1 X108.208 Y202.1 E27.18277
G1 X107.7 Y202.029 E27.20811
G1 X106.859 Y201.88 E27.25029
G1 X106.11 Y201.706 E27.28827
G1 X105.499 Y201.502 E27.32009
G1 X104.493 Y201.116 E27.37331
G1 X103.79 Y200.803 E27.41131
G1 X103.177 Y200.454 E27.44615
G1 X102.437 Y199.984 E27.48945
G1 X101.81 Y199.538 E27.52746
G1 X101.232 Y199.029 E27.5655
G1 X100.836 Y198.642 E27.59284
G1 X97.21 Y198.638 E27.77194
G1 X96.442 Y198.597 E27.80992
G1 X95.683 Y198.477 E27.84788
G1 X94.939 Y198.278 E27.88592
G1 X94.221 Y198.004 E27.92387
G1 X93.535 Y197.656 E27.96187
G1 X92.889 Y197.239 E27.99984
G1 X92.054 Y196.539 E28.05366
G1 X91.938 Y196.426 E28.06166
G1 X91.416 Y195.861 E28.09965
G1 X90.955 Y195.245 E28.13765
G1 X90.561 Y194.585 E28.17562
G1 X90.237 Y193.887 E28.21363
G1 X89.987 Y193.16 E28.2516
G1 X89.814 Y192.41 E28.28961
G1 X89.703 Y191.273 E28.34604
G1 X89.53 Y182.624 E28.77331
G1 X85.937 Y182.629 E28.95077
G1 X85.806 Y189.19 E29.27489
G1 X85.75 Y189.957 E29.31288
G1 X85.615 Y190.715 E29.35091
G1 X85.403 Y191.454 E29.38888
G1 X85.115 Y192.167 E29.42686
G1 X84.754 Y192.846 E29.46484
G1 X84.325 Y193.485 E29.50285
G1 X83.594 Y194.32 E29.55767
G1 X83.478 Y194.434 E29.5657
G1 X82.902 Y194.944 E29.6037
G1 X82.276 Y195.391 E29.64169
G1 X81.608 Y195.771 E29.67965
G1 X80.903 Y196.08 E29.71767
G1 X80.17 Y196.313 E29.75566
G1 X79.417 Y196.47 E29.79365
G1 X78.291 Y196.556 E29.84942
G1 X73.703 Y196.556 E30.07603
G1 X72.935 Y196.516 E30.11402
G1 X72.175 Y196.397 E30.15201
G1 X71.432 Y196.199 E30.18999
G1 X70.713 Y195.925 E30.22799
G1 X70.027 Y195.578 E30.26596
G1 X69.38 Y195.162 E30.30395
G1 X68.78 Y194.681 E30.34194
G1 X68.47 Y194.389 E30.36297
G1 X68.353 Y194.272 E30.37114
G1 X67.839 Y193.7 E30.40913
G1 X67.386 Y193.078 E30.44713
G1 X67 Y192.413 E30.48511
G1 X66.685 Y191.711 E30.52311
G1 X66.445 Y190.98 E30.56111
G1 X66.282 Y190.229 E30.59907
G1 X66.198 Y189.464 E30.63708
G1 X66.186 Y189.039 E30.65808
G1 X66.186 Y170.355 E31.58091
G1 X66.226 Y169.587 E31.61889
G1 X66.345 Y168.827 E31.65689
G1 X66.543 Y168.084 E31.69487
G1 X66.817 Y167.365 E31.73287
G1 X67.164 Y166.679 E31.77084
G1 X67.58 Y166.032 E31.80883
G1 X68.061 Y165.432 E31.84681
G1 X68.353 Y165.122 E31.86785
G1 X68.47 Y165.005 E31.87602
G1 X69.042 Y164.491 E31.914
G1 X69.664 Y164.038 E31.95201
G1 X70.198 Y163.728 E31.9825
G1 X70.133 Y163.139 E32.01177
G1 X70.121 Y162.715 E32.03272
G1 X70.12 Y157.429 E32.29381
G1 X70.16 Y156.661 E32.33179
G1 X70.166 Y156.621 E32.33379
G1 X70.162 Y156.583 E32.33567
G1 X70.15 Y156.16 E32.35658
G1 X70.149 Y151.959 E32.56407
G1 X70.189 Y151.191 E32.60205
G1 X70.308 Y150.431 E32.64005
G1 X70.506 Y149.687 E32.67807
G1 X70.779 Y148.969 E32.71601
G1 X71.126 Y148.282 E32.75403
G1 X71.542 Y147.635 E32.79202
G1 X72.023 Y147.035 E32.83
G1 X72.316 Y146.724 E32.8511
